svg/add-receipt.svg

<?xml version="1.0" encoding="UTF-8"?>
<svg xmlns="http://www.w3.org/2000/svg" xmlns:xlink="http://www.w3.org/1999/xlink" width="32" height="32" viewBox="0 0 32 32">
<path fill-rule="nonzero" fill="rgb(0%, 0%, 0%)" fill-opacity="1" d="M 7.039062 1.28125 C 6.941406 1.28125 6.84375 1.304688 6.753906 1.347656 L 5.761719 1.84375 L 4.765625 1.347656 C 4.566406 1.25 4.332031 1.257812 4.144531 1.375 C 3.953125 1.492188 3.839844 1.699219 3.839844 1.921875 L 3.839844 30.078125 C 3.839844 30.429688 4.125 30.71875 4.480469 30.71875 L 21.773438 30.71875 C 24.277344 32.585938 27.855469 32.394531 30.125 30.125 C 32.613281 27.636719 32.613281 23.5625 30.125 21.074219 C 29.558594 20.511719 28.890625 20.058594 28.160156 19.742188 L 28.160156 1.921875 C 28.160156 1.699219 28.046875 1.492188 27.855469 1.375 C 27.667969 1.257812 27.433594 1.25 27.234375 1.347656 L 26.238281 1.84375 L 25.246094 1.347656 C 25.066406 1.257812 24.851562 1.257812 24.671875 1.347656 L 23.679688 1.84375 L 22.6875 1.347656 C 22.507812 1.257812 22.292969 1.257812 22.113281 1.347656 L 21.121094 1.84375 L 20.125 1.347656 C 19.945312 1.257812 19.734375 1.257812 19.554688 1.347656 L 18.558594 1.84375 L 17.566406 1.347656 C 17.386719 1.257812 17.171875 1.257812 16.992188 1.347656 L 16 1.84375 L 15.007812 1.347656 C 14.828125 1.257812 14.613281 1.257812 14.433594 1.347656 L 13.441406 1.84375 L 12.445312 1.347656 C 12.265625 1.257812 12.054688 1.257812 11.875 1.347656 L 10.878906 1.84375 L 9.886719 1.347656 C 9.707031 1.257812 9.492188 1.257812 9.3125 1.347656 L 8.320312 1.84375 L 7.328125 1.347656 C 7.238281 1.304688 7.140625 1.28125 7.039062 1.28125 M 8.320312 7.039062 L 17.921875 7.039062 C 18.273438 7.039062 18.558594 7.324219 18.558594 7.679688 C 18.558594 7.847656 18.492188 8.011719 18.375 8.132812 C 18.253906 8.253906 18.09375 8.320312 17.921875 8.320312 L 8.320312 8.320312 C 8.148438 8.320312 7.988281 8.253906 7.867188 8.132812 C 7.683594 7.953125 7.628906 7.675781 7.730469 7.4375 C 7.828125 7.199219 8.0625 7.042969 8.320312 7.039062 M 21.761719 7.039062 L 23.679688 7.039062 C 23.941406 7.042969 24.171875 7.199219 24.269531 7.441406 C 24.371094 7.679688 24.316406 7.957031 24.132812 8.140625 C 24.011719 8.261719 23.847656 8.328125 23.679688 8.320312 L 21.761719 8.320312 C 21.59375 8.324219 21.429688 8.257812 21.308594 8.136719 C 21.128906 7.953125 21.074219 7.679688 21.171875 7.441406 C 21.273438 7.203125 21.503906 7.046875 21.761719 7.042969 M 8.320312 10.878906 L 15.359375 10.878906 C 15.703125 10.894531 15.976562 11.175781 15.976562 11.519531 C 15.976562 11.863281 15.703125 12.144531 15.359375 12.160156 L 8.320312 12.160156 C 7.984375 12.136719 7.722656 11.855469 7.722656 11.519531 C 7.722656 11.183594 7.984375 10.902344 8.320312 10.878906 M 21.761719 10.878906 L 23.679688 10.878906 C 24.015625 10.902344 24.277344 11.183594 24.277344 11.519531 C 24.277344 11.855469 24.015625 12.136719 23.679688 12.160156 L 21.761719 12.160156 C 21.417969 12.144531 21.148438 11.863281 21.144531 11.519531 C 21.144531 11.175781 21.417969 10.894531 21.761719 10.878906 M 8.320312 14.71875 L 17.921875 14.71875 C 18.257812 14.742188 18.519531 15.023438 18.519531 15.359375 C 18.519531 15.695312 18.257812 15.976562 17.921875 16 L 8.320312 16 C 7.984375 15.976562 7.722656 15.695312 7.722656 15.359375 C 7.722656 15.023438 7.984375 14.742188 8.320312 14.71875 M 21.761719 14.71875 L 23.679688 14.71875 C 24.015625 14.742188 24.277344 15.023438 24.277344 15.359375 C 24.277344 15.695312 24.015625 15.976562 23.679688 16 L 21.761719 16 C 21.425781 15.976562 21.164062 15.695312 21.164062 15.359375 C 21.164062 15.023438 21.425781 14.742188 21.761719 14.71875 M 8.320312 18.558594 L 15.359375 18.558594 C 15.691406 18.589844 15.941406 18.867188 15.941406 19.199219 C 15.941406 19.53125 15.691406 19.808594 15.359375 19.839844 L 8.320312 19.839844 C 7.984375 19.816406 7.722656 19.535156 7.722656 19.199219 C 7.722656 18.859375 7.984375 18.582031 8.320312 18.558594 M 21.761719 18.558594 L 23.679688 18.558594 C 23.851562 18.558594 24.011719 18.625 24.132812 18.746094 C 24.253906 18.867188 24.320312 19.027344 24.320312 19.199219 C 24.320312 19.25 24.300781 19.296875 24.292969 19.34375 C 23.789062 19.449219 23.296875 19.617188 22.832031 19.839844 L 21.761719 19.839844 C 21.425781 19.816406 21.164062 19.535156 21.164062 19.199219 C 21.164062 18.863281 21.425781 18.582031 21.761719 18.558594 M 25.601562 20.484375 C 26.957031 20.480469 28.261719 21.019531 29.21875 21.980469 C 31.210938 23.972656 31.210938 27.230469 29.21875 29.21875 C 27.21875 31.210938 23.980469 31.210938 21.980469 29.21875 C 19.988281 27.21875 19.988281 23.980469 21.980469 21.980469 C 22.941406 21.019531 24.242188 20.480469 25.601562 20.484375 M 25.601562 21.796875 C 25.433594 21.792969 25.269531 21.859375 25.148438 21.980469 C 25.027344 22.101562 24.960938 22.265625 24.964844 22.433594 L 24.964844 24.964844 L 22.433594 24.964844 C 22.265625 24.960938 22.101562 25.027344 21.980469 25.148438 C 21.855469 25.265625 21.789062 25.429688 21.796875 25.601562 C 21.792969 25.773438 21.859375 25.933594 21.980469 26.054688 C 22.101562 26.171875 22.265625 26.238281 22.433594 26.234375 L 24.964844 26.234375 L 24.964844 28.765625 C 24.964844 29.128906 25.238281 29.402344 25.601562 29.402344 C 25.78125 29.402344 25.960938 29.308594 26.050781 29.21875 C 26.167969 29.097656 26.230469 28.933594 26.234375 28.765625 L 26.234375 26.234375 L 28.765625 26.234375 C 28.949219 26.234375 29.128906 26.144531 29.21875 26.050781 C 29.335938 25.929688 29.402344 25.769531 29.402344 25.601562 C 29.40625 25.429688 29.339844 25.269531 29.21875 25.148438 C 29.097656 25.027344 28.9375 24.960938 28.765625 24.964844 L 26.234375 24.964844 L 26.234375 22.433594 C 26.238281 22.265625 26.171875 22.101562 26.054688 21.980469 C 25.933594 21.859375 25.769531 21.792969 25.601562 21.796875 M 8.320312 22.398438 C 8.558594 22.382812 8.78125 22.503906 8.90625 22.707031 C 9.027344 22.910156 9.027344 23.164062 8.90625 23.367188 C 8.78125 23.570312 8.558594 23.6875 8.320312 23.675781 C 7.980469 23.65625 7.714844 23.375 7.714844 23.035156 C 7.714844 22.699219 7.980469 22.417969 8.320312 22.398438 M 10.238281 22.398438 C 10.476562 22.382812 10.699219 22.503906 10.824219 22.707031 C 10.945312 22.910156 10.945312 23.164062 10.824219 23.367188 C 10.703125 23.574219 10.476562 23.695312 10.238281 23.679688 C 9.902344 23.65625 9.636719 23.378906 9.636719 23.039062 C 9.636719 22.699219 9.898438 22.417969 10.238281 22.398438 M 12.160156 22.398438 C 12.398438 22.382812 12.625 22.5 12.746094 22.707031 C 12.871094 22.910156 12.867188 23.164062 12.742188 23.367188 C 12.621094 23.570312 12.398438 23.691406 12.160156 23.679688 C 11.820312 23.660156 11.558594 23.378906 11.558594 23.039062 C 11.558594 22.699219 11.820312 22.417969 12.160156 22.398438 M 14.078125 22.398438 C 14.417969 22.417969 14.683594 22.699219 14.683594 23.039062 C 14.683594 23.378906 14.417969 23.660156 14.078125 23.679688 C 13.722656 23.679688 13.4375 23.394531 13.4375 23.039062 C 13.4375 22.683594 13.722656 22.398438 14.078125 22.398438 M 16 22.398438 C 16.261719 22.382812 16.507812 22.53125 16.617188 22.769531 C 16.730469 23.007812 16.683594 23.289062 16.503906 23.480469 C 16.304688 23.6875 15.992188 23.742188 15.738281 23.605469 C 15.480469 23.472656 15.347656 23.183594 15.410156 22.902344 C 15.46875 22.621094 15.710938 22.414062 16 22.398438 M 17.921875 22.398438 C 18.277344 22.398438 18.5625 22.683594 18.5625 23.039062 C 18.5625 23.394531 18.277344 23.679688 17.921875 23.679688 C 17.589844 23.652344 17.332031 23.375 17.332031 23.039062 C 17.332031 22.703125 17.589844 22.425781 17.921875 22.398438 M 17.921875 22.398438 "/>
</svg>

<svg role="img" viewBox="0 0 32 32" xmlns="http://www.w3.org/2000/svg"><path d="M7.04 1.281a.7.7 0 0 0-.286.067l-.992.496-.996-.496a.64.64 0 0 0-.926.574v28.156a.64.64 0 0 0 .64.64h17.293c2.504 1.868 6.082 1.677 8.352-.593 2.488-2.488 2.488-6.562 0-9.05a6.4 6.4 0 0 0-1.965-1.333V1.922a.64.64 0 0 0-.926-.574l-.996.496-.992-.496a.65.65 0 0 0-.574 0l-.992.496-.992-.496a.65.65 0 0 0-.575 0l-.992.496-.996-.496a.64.64 0 0 0-.57 0l-.996.496-.993-.496a.65.65 0 0 0-.574 0L16 1.844l-.992-.496a.65.65 0 0 0-.574 0l-.993.496-.996-.496a.64.64 0 0 0-.57 0l-.996.496-.992-.496a.65.65 0 0 0-.575 0l-.992.496-.992-.496a.7.7 0 0 0-.289-.067M8.32 7.04h9.602c.351 0 .637.285.637.64a.635.635 0 0 1-.637.64l-9.602.001a.64.64 0 0 1-.453-.187.642.642 0 0 1 .453-1.094m13.442 0h1.918c.261.004.492.16.59.402a.64.64 0 0 1-.137.7.63.63 0 0 1-.453.18h-1.918a.62.62 0 0 1-.453-.184.642.642 0 0 1 .453-1.094M8.32 10.879h7.04a.641.641 0 0 1 0 1.281H8.32a.644.644 0 0 1-.597-.64c0-.336.261-.618.597-.641m13.442 0h1.918a.644.644 0 0 1 .597.64.644.644 0 0 1-.597.641h-1.918a.641.641 0 0 1 0-1.281M8.32 14.719h9.602a.642.642 0 0 1 0 1.281H8.32a.644.644 0 0 1-.597-.64c0-.337.261-.618.597-.641m13.442 0h1.918a.644.644 0 0 1 .597.64.644.644 0 0 1-.597.641h-1.918a.644.644 0 0 1-.598-.64c0-.337.262-.618.598-.641M8.32 18.559h7.04a.643.643 0 0 1 0 1.28H8.32a.641.641 0 0 1 0-1.281m13.442 0h1.918c.172 0 .332.067.453.188a.64.64 0 0 1 .187.453c0 .051-.02.098-.027.145a6.5 6.5 0 0 0-1.461.496h-1.07a.641.641 0 0 1 0-1.281m3.84 1.925a5.1 5.1 0 0 1 3.617 1.496c1.992 1.993 1.992 5.25 0 7.239a5.13 5.13 0 0 1-7.239 0 5.13 5.13 0 0 1 0-7.239 5.1 5.1 0 0 1 3.622-1.496m0 1.313a.62.62 0 0 0-.454.183.62.62 0 0 0-.183.454v2.53h-2.531a.62.62 0 0 0-.454.184.6.6 0 0 0-.183.454.62.62 0 0 0 .637.632h2.53v2.532c0 .363.274.636.638.636.18 0 .359-.093.449-.183a.67.67 0 0 0 .183-.453v-2.532h2.532c.183 0 .363-.09.453-.183a.66.66 0 0 0 .183-.45.62.62 0 0 0-.183-.453.62.62 0 0 0-.453-.183h-2.532v-2.531a.62.62 0 0 0-.633-.637m-17.28.601a.64.64 0 1 1 0 1.278.64.64 0 0 1-.606-.64c0-.337.265-.618.605-.638m1.918 0a.64.64 0 0 1 .586.97.64.64 0 0 1-.586.312.644.644 0 0 1-.601-.64.64.64 0 0 1 .601-.642m1.922 0a.64.64 0 0 1 .586.309.645.645 0 0 1-.586.973.64.64 0 0 1-.601-.64.64.64 0 0 1 .601-.642m1.918 0a.642.642 0 0 1 0 1.282.642.642 0 0 1 0-1.281m1.922 0a.65.65 0 0 1 .586.308.642.642 0 1 1-.586-.309m1.922 0a.64.64 0 0 1 0 1.282.642.642 0 0 1 0-1.282m0 0"/></svg>
